svg/folder.svg

<svg width="24" height="24" viewBox="0 0 24 24" fill="none" xmlns="http://www.w3.org/2000/svg">
<path d="M2 6C2 4.89543 2.89543 4 4 4H9C9.26522 4 9.51957 4.10536 9.70711 4.29289L11.4142 6H20C21.1046 6 22 6.89543 22 8V18C22 19.1046 21.1046 20 20 20H4C2.89543 20 2 19.1046 2 18V6ZM8.58579 6L4 6V18H20V8H11C10.7348 8 10.4804 7.89464 10.2929 7.70711L8.58579 6Z" fill="#0D0D0D"/>
</svg>

<svg width="24" height="24" fill="none" xmlns="http://www.w3.org/2000/svg"><path d="M2 6a2 2 0 012-2h5a1 1 0 01.707.293L11.414 6H20a2 2 0 012 2v10a2 2 0 01-2 2H4a2 2 0 01-2-2V6zm6.586 0H4v12h16V8h-9a1 1 0 01-.707-.293L8.586 6z" fill="#0D0D0D"/></svg>
